!!!COM: Music21
!!!OTL: slide_Anlon-McKinney
!!!OMV: slide_Anlon-McKinney
**kern
*clefG2
*k[f#]
*G:
*M12/8
=1
8gL
8e
8dJ
4g
8a
8gL
8e
8dJ
4g
8a
=
4.b
8gL
8b
8ddJ
8eeL
8dd
8ddJ
8ddL
8b
8ddJ
=
16eeLL
16ff#J
8gg
8eeJ
16eeLL
16ff#J
8gg
8eeJ
8ddL
8ee
8ddJ
8ddL
8b
8ddJ
!!linebreak:original
=
8eeL
8dd
8ddJ
8ddL
8b
8aJ
8bL
8g
8gJ
4g
8a
=||
*M12/8
8gL
8e
8dJ
4g
8a
8gL
8e
8dJ
4g
8a
=
4.b
8gL
8b
8ddJ
8eeL
8dd
8ddJ
8ddL
8b
8ddJ
!!linebreak:original
=
16eeLL
16ff#J
8gg
8eeJ
16eeLL
16ff#J
8gg
8eeJ
8ddL
8ee
8ddJ
8ddL
8b
8ddJ
=
8eeL
8dd
8ddJ
8ddL
8b
8aJ
8bL
8g
8gJ
4.gg
=||
8aaL
8gg
8ggJ
8bbL
8gg
8ggJ
8eeL
8dd
8ddJ
8eeL
8dd
8ddJ
=
8eeL
8dd
8ddJ
8ddL
8b
8aJ
8bL
8dd
8ddJ
4.gg
!!linebreak:original
=
8aaL
8gg
8ggJ
8bbL
8gg
8ggJ
8eeL
8dd
8ddJ
8eeL
8dd
8ddJ
=
8eeL
8dd
8ddJ
8ddL
8b
8aJ
8bL
8g
8gJ
4.gg
=||
8aaL
8gg
8ggJ
8bbL
8gg
8ggJ
8eeL
8dd
8ddJ
8eeL
8dd
8ddJ
=
8eeL
8dd
8ddJ
8ddL
8b
8aJ
8bL
8dd
8ddJ
4.gg
!!linebreak:original
=
8aaL
8gg
8ggJ
8bbL
8gg
8ggJ
8eeL
8dd
8ddJ
8eeL
8dd
8ddJ
=
8eeL
8dd
8ddJ
8ddL
8b
8aJ
8bL
8g
8gJ
4g
8a
=||
*-
